X:510
T: "Zwist und Versoehnung"
N: Z1190
O: Europa, Mitteleuropa, Deutschland, Bayern; Tirol
R: Liebes - Lied
M: 2/4
L: 1/16
K: C
c2 | c2G2G2c2 | c2A2A2
dc | B2G2A2B2 | c4z2
c2 | c2G2G2c2 | c2A2A2
dc | B2G2A2B2 | c4z2
c2 | B2c2d2B2 | c2d2e2
c2 | B2c2d2B2 | c2d2e2
c2 | c2G2G2c2 | c2A2A2
dc | B2G2A2B2 | c4z2

